X:1
T:3 Geistliche Chorgesänge
T:1
T:Moritz Hauptmann
T:Ich komme vor dein Angesicht
T:Op. 56, No. 1
T:CPDL   —   Creative Commons Attribution Non Commercial 3.0
T:CPDL   —   Creative Commons Attribution Non Commercial 3.0
T:CPDL   —   Creative Commons Attribution Non Commercial 3.0
T:CPDL   —   Creative Commons Attribution Non Commercial 3.0
T:CPDL   —   Creative Commons Attribution Non Commercial 3.0
T:CPDL   —   Creative Commons Attribution Non Commercial 3.0
C:Moritz Hauptmann
Z:CPDL   —   Creative Commons Attribution Non Commercial 3.0
%%score [ 1 2 ( 3 4 ) 5 ]
L:1/8
Q:1/4=120
M:4/4
K:Eb
V:1 treble nm="Sopran"
V:2 treble nm="Alt"
V:3 treble-8 nm="Tenor"
V:4 treble-8 
V:5 bass nm="Bass"
V:1
"^Etwas bewegt"!p! E2 | F2!<(! E2 A2 G2!<)! |!f!!>(! c3 B!>)! B2!mf! E2 | G2!<(! B2 e2 B2!<)! | %4
w: 1.   Ich|kom- me vor dein|An- ge- sicht, ver-|wirf, o Herr, mein|
w: 2. Schaff|du ein rei- nes|Herz in mir, ein|Herz voll Lieb' und|
!>(! A3 G!>)! G2!mf! B2 | c2 B2 G2 E2 | (F4"^cresc." (G2) B2) | A2!f!!<(! c2 e4-!<)! | %8
w: Fle- hen nicht; ver-|gib mir al- le|mei- * ne|Schuld, du Gott|
w: Furcht zu dir, ein|Herz voll De- mut,|Preis und _|Dank, ein ru-|
 e2 c2 B2 A2 | G4 (F3 E) |1 E4 z2 :|2 E4 z2 ||!p!"^dolce" B2 | B2 B2!<(! A2 G2!<)! | %14
w: _ der Gna- den|und Ge- *|duld!||3. Sei|mein Be- schüt- zer|
w: * hig Herz mein|Le- ben _|_|lang.|||
!>(! G3 F!>)! F2 B2 | B2"^poco cresc." B2 A2 G2 |!>(! G3 F!>)! F2!mf! F2 | G2 =A2"^cresc." B2 c2 | %18
w: vor Ge- fahr, ich|har- re dei- ner|im- mer- dar. Ist|wohl ein Ü- bel,|
w: ||||
!>(! d3!>)! c B2!f! d2 | f3 d B2 e2 | d4 (c3 B) | B4 z2 ||!p! B2 | G2!<(! E2 A2 G2!<)! | %24
w: das mich schreckt, wenn|dei- ne Hand mich|schützt und *|deckt?|4. Ich|bin zu schwach aus|
w: ||||||
!>(! c3 B!>)! B2!mf! E2 | G2!<(! B2 e2 B2!<)! |!>(! A3 G!>)! G2!mf! B2 | c2 B2 G2 E2 | %28
w: eig- ner Kraft zu|sie- gen ü- ber|Lei- den- schaft; du|a- ber ziehst mit|
w: ||||
 F4"^cresc." (G2 B2) | A2!f! .c2!<(! !^!e4-!<)! | e2 c2 B2 A2 | %31
w: Kraft mich _|an, du ziehst|_ mit Kraft mich,|
w: |||
 z2!p![Q:1/4=110]"^riten."!<(! c2!<)!!>(! B2!>)! A2 |[Q:1/4=120]"^a tempo" z2!mf! A2 G2 F2 | %33
w: du ziehst mich,|dass ich den|
w: ||
 B6!<(! B2!<)! |!>(! (c2!>)! B4) B2 | B6 G2 | E4!mf!!<(! (!^!E3!<)! e) |!f!!>(! e6!>)! c2 | %38
w: Sieg, den|Sieg _ er-|hal- ten|kann, o _|Herr, ver-|
w: |||||
 A2[Q:1/4=110]"^riten."!<(! A2 B2 c2!<)! |"^dim." !fermata!B8 |] %40
w: wirf mein Fle- hen|nicht.|
w: ||
V:2
!p! B,2 | C2!<(! B,2 D2 E2!<)! |!f!!>(! A3 G!>)! G2!mf! B2 | G2!<(! F2 E2 E2!<)! | %4
w: ||||
!>(! E3 E!>)! E2!mf! B2 | c2 B2"^De   -     mut" G2 E2- | %6
w: |* * all', al-|
"^De  -   mut," E2 D2"^Preis             und""^cresc." _D3 E | C2!f!!<(! A2 c4-!<)! | c2 A2 G2 F2 | %9
w: * le mei- ne|||
 (F2 E4) D2 |1 E4 z2 :|2 B,4 z2 ||!p!"^dolce" E2 | E2 E2!<(! E2 E2!<)! |!>(! D3 D!>)! D2 D2 | %15
w: |||3. Sei|mein Be- schüt- zer|vor Ge- fahr, ich|
 E2"^poco cresc." E2 F2 E2 |!>(! E3 E!>)! E2!mf! D2 | E2 E2"^cresc." F2 F2 | %18
w: har- re dei- ner|im- mer- dar. Ist|wohl ein Ü- bel,|
!>(! F3!>)! =A B2!f! B2 | B3 B B2 c2 | (c2 B4) =A2 | B4 z2 ||!p! B2 | G2!<(! E2 E2 E2!<)! | %24
w: das mich schreckt, wenn|dei- ne Hand mich|schützt _ und|deckt?|4. Ich|bin zu schwach aus|
!>(! A3 G!>)! G2!mf! B2 | G2!<(! F2 E2 E2!<)! |!>(! E3 E!>)! E2!mf! B2 | c2 B2 G2 E2- | %28
w: eig- ner Kraft zu|sie- gen ü- ber|Lei- den- schaft; du|a- ber ziehst, ziehst|
 E2 D2"^cresc." _D3 E | C2!f! .A2!<(! !^!c4-!<)! | c2 A2 G2 F2 | z2!p!!<(! F2!<)!!>(! G2!>)! A2 | %32
w: _ mit Kraft mich|an, du ziehst|_ mit Kraft mich,|du ziehst mich,|
 z2!mf! C2 C2 C2 | B,2 G2 F2 E2 | (D2 F2 E2) D2 | E4!mf!!<(! (G3!<)! B) | (B2"^cresc." !^!A4) G2 | %37
w: dass ich den|Sieg den Sieg er-|hal- * * ten|kann, o _|Herr, _ ver-|
!f! A2 E2 E4- | E2!<(! E2 E2 E2!<)! |"^dim." !fermata!E8 |] %40
w: wirf, o Herr,|_ mein Fle- hen|nicht.|
V:3
!p! G2 | A2!<(! G2 F2 B2!<)! |!f!!>(! d3 e!>)! B2!mf! B2 | B2!<(! F2 G2 G2!<)! | %4
w: 1.   Ich|kom- me vor dein|An- ge- sicht, ver-|wirf, o Herr, mein|
w: 2. Schaff|du ein rei- nes|Herz in mir, ein|Herz voll Lieb' und|
!>(! c3 B!>)! B2!mf! B2 | c2 B2 G2 E2 | B6 G2 | E2 z2 z2!f! c2 | A2 A2 B2 c2 | B4 A4 |1 G4 z2 :|2 %11
w: Fle- hen nicht; ver-|gib mir al- le|mei- ne|Schuld, du|Gott der Gna- den|und Ge-|duld!|
w: Furcht zu dir, ein|Herz voll De- mut,|Preis *|Dank, ein|ru- hig Herz mein|Le- ben||
 G4 z2 ||!p!"^dolce" G2 | G2 G2!<(! c2 B2!<)! |!>(! A3 A!>)! A2 F2 | G2"^poco cresc." e2 B2 B2 | %16
w: |3. Sei|mein Be- schüt- zer|vor Ge- fahr, ich|har- re dei- ner|
w: lang.|||||
!>(! =A3 A!>)! A2!mf! B2 | B2 c2"^cresc." F2 =A2 |!>(! B3!>)! e d2!f! B2 | d3 f g2 g2 | f4 e4 | %21
w: im- mer- dar. Ist|wohl ein Ü- bel,|das mich schreckt, wenn|dei- ne Hand mich|schützt und|
w: |||||
 d4 z2 ||!p! B2 | G2!<(! E2 c2 B2!<)! |!>(! d3 e!>)! B2!mf! B2 | B2!<(! F2 G2 G2!<)! | %26
w: deckt?|4. Ich|bin zu schwach aus|eig- ner Kraft zu|sie- gen ü- ber|
w: |||||
!>(! c3 B!>)! B2!mf! B2 | c2 B2 G2 E2 | B6"^cresc." G2 | E2 z2 z2!f! c2 | A2 A2 B2 c2 | %31
w: Lei- den- schaft; du|a- ber ziehst mit|Kraft mich|an, du|ziehst mit Kraft mich,|
w: |||||
 z2!p!!<(! c2!<)!!>(! _d2!>)! c2 | z2!mf! c2 B2 A2 | G2 B2 A2 G2 | (F2 A2 G2) F2 | %35
w: du ziehst mich,|dass ich den|Sieg, den Sieg er-|hal- * * ten|
w: ||||
 G4!mf!!<(! (B3!<)! _d) | (_d2"^cresc." !^!c4) =B2 |!f!!>(! c6!>)! e2 | c2!<(! c2 G2 A2!<)! | %39
w: kann, o _|Herr, _ o|Herr, ver-|wirf mein Fle- hen|
w: ||||
"^dim." !fermata!G8 |] %40
w: nicht.|
w: |
V:4
 x2 | x8 | x8 | x8 | x8 | x8 | B4"^cresc." G4 | x8 | x8 | x8 |1 x6 :|2 x6 || x2 | x8 | x8 | x8 | %16
w: ||||||||||||||||
w: ||||||* und||||||||||
 x8 | x8 | x8 | x8 | x8 | x6 || x2 | x8 | x8 | x8 | x8 | x8 | x8 | x8 | x8 | x8 | x8 | x8 | x8 | %35
w: |||||||||||||||||||
w: |||||||||||||||||||
 x8 | x8 | x8 | x8 | x8 |] %40
w: |||||
w: |||||
V:5
!p! E,2 | E,2!<(! E,2 E,2 E,2!<)! |!f!!>(! E,3 E,!>)! E,2!mf! G,2 | E,2!<(! D,2 C,2 E,2!<)! | %4
w: ||||
!>(! A,,3 E,!>)! E,2!mf! B,2 | C2 B,2 G,2 E,2 | B,,4"^cresc." E,4 | A,,2 z2 z2!f! A,2 | %8
w: ||||
 F,2 F,2 G,2 A,2 | B,4 B,,4 |1 E,4 z2 :|2 E,4 z2 ||!p!"^dolce" E,2 | E,2 E,2!<(! E,2 E,2!<)! | %14
w: ||||3. Sei|mein Be- schüt- zer|
!>(! B,,3 B,,!>)! B,,2 A,,2 | G,,2"^poco cresc." G,2 D,2 E,2 |!>(! C,3 F,!>)! F,2!mf! B,,2 | %17
w: vor Ge- fahr, ich|har- re dei- ner|im- mer- dar. Ist|
 E,2 C,2"^cresc." D,2 F,2 |!>(! B,3!>)! B,, B,,2!f! G,2 | D,2 B,,2 E,2 C,2 | F,4 F,,4 | B,,4 z2 || %22
w: wohl ein Ü- bel,|das mich schreckt, wenn|dei- ne Hand mich|schützt und|deckt?|
!p! B,2 | G,2!<(! E,2 E,2 E,2!<)! |!>(! E,3 E,!>)! E,2!mf! G,2 | E,2!<(! D,2 C,2 E,2!<)! | %26
w: 4. Ich|bin zu schwach aus|eig- ner Kraft zu|sie- gen ü- ber|
!>(! A,,3 E,!>)! E,2!mf! B,2 | C2 B,2 G,2 E,2 | B,,4"^cresc." E,4 | A,,2 z2 z2!f! A,2 | %30
w: Lei- den- schaft; du|a- ber ziehst mit|Kraft mich|an, du|
 F,2 F,2 G,2 A,2 | z2!p!!<(! A,2!<)!!>(! =E,2!>)! F,2 | z2!mf! F,,2 G,,2 A,,2 | B,,8- | %34
w: ziehst mit Kraft mich,|du ziehst mich,|dass ich den|Sieg|
 B,,2 B,,2 B,,2 B,,2 | [E,,E,]2!mf! E,2 E,4- | E,2"^cresc." E,2 E,4- |!f!!>(! E,4!>)! E,4- | %38
w: * er- hal- ten|kann, o Herr,|_ ver- wirf|_ Herr,|
 E,2!<(! E,2 E,2 E,2!<)! |"^dim." !fermata![E,,E,]8 |] %40
w: _ mein Fle- hen|nicht.|

